frontend/src/assets/user.svg

<svg
   xmlns="http://www.w3.org/2000/svg"
   height="512pt"
   viewBox="0 0 512 512"
   width="512pt"/>
  <path
     d="m437.019531 74.980469c-48.351562-48.351563-112.640625-74.980469-181.019531-74.980469-68.382812 0-132.667969 26.628906-181.019531 74.980469-48.351563 48.351562-74.980469 112.636719-74.980469 181.019531 0 68.378906 26.628906 132.667969 74.980469 181.019531 48.351562 48.351563 112.636719 74.980469 181.019531 74.980469 68.378906 0 132.667969-26.628906 181.019531-74.980469 48.351563-48.351562 74.980469-112.640625 74.980469-181.019531 0-68.382812-26.628906-132.667969-74.980469-181.019531zm-308.679687 367.40625c10.707031-61.648438 64.128906-107.121094 127.660156-107.121094 63.535156 0 116.953125 45.472656 127.660156 107.121094-36.347656 24.972656-80.324218 39.613281-127.660156 39.613281s-91.3125-14.640625-127.660156-39.613281zm46.261718-218.519531c0-44.886719 36.515626-81.398438 81.398438-81.398438s81.398438 36.515625 81.398438 81.398438c0 44.882812-36.515626 81.398437-81.398438 81.398437s-81.398438-36.515625-81.398438-81.398437zm235.042969 197.710937c-8.074219-28.699219-24.109375-54.738281-46.585937-75.078125-13.789063-12.480469-29.484375-22.328125-46.359375-29.269531 30.5-19.894531 50.703125-54.3125 50.703125-93.363281 0-61.425782-49.976563-111.398438-111.402344-111.398438s-111.398438 49.972656-111.398438 111.398438c0 39.050781 20.203126 73.46875 50.699219 93.363281-16.871093 6.941406-32.570312 16.785156-46.359375 29.265625-22.472656 20.339844-38.511718 46.378906-46.585937 75.078125-44.472657-41.300781-72.355469-100.238281-72.355469-165.574219 0-124.617188 101.382812-226 226-226s226 101.382812 226 226c0 65.339844-27.882812 124.277344-72.355469 165.578125zm0 0"
     id="path2"
     style="fill:#e9e9e9;fill-opacity:1" />
</svg>

<svg width="512" height="512" viewBox="0 0 512 512" fill="none" xmlns="http://www.w3.org/2000/svg">
<g clip-path="url(#clip0_100:22)">
<path d="M437.02 74.9805C388.668 26.6289 324.379 0 256 0C187.617 0 123.332 26.6289 74.9805 74.9805C26.6289 123.332 0 187.617 0 256C0 324.379 26.6289 388.668 74.9805 437.02C123.332 485.371 187.617 512 256 512C324.379 512 388.668 485.371 437.02 437.02C485.371 388.668 512 324.379 512 256C512 187.617 485.371 123.332 437.02 74.9805V74.9805ZM128.34 442.387C139.047 380.738 192.469 335.266 256 335.266C319.535 335.266 372.953 380.738 383.66 442.387C347.312 467.359 303.336 482 256 482C208.664 482 164.688 467.359 128.34 442.387ZM174.602 223.867C174.602 178.98 211.117 142.469 256 142.469C300.883 142.469 337.398 178.984 337.398 223.867C337.398 268.75 300.883 305.266 256 305.266C211.117 305.266 174.602 268.75 174.602 223.867V223.867ZM409.645 421.578C401.57 392.879 385.535 366.84 363.059 346.5C349.27 334.02 333.574 324.172 316.699 317.23C347.199 297.336 367.402 262.918 367.402 223.867C367.402 162.441 317.426 112.469 256 112.469C194.574 112.469 144.602 162.441 144.602 223.867C144.602 262.918 164.805 297.336 195.301 317.23C178.43 324.172 162.73 334.016 148.941 346.496C126.469 366.836 110.43 392.875 102.355 421.574C57.8828 380.273 30 321.336 30 256C30 131.383 131.383 30 256 30C380.617 30 482 131.383 482 256C482 321.34 454.117 380.277 409.645 421.578V421.578Z" fill="#E9E9E9"/>
</g>
<defs>
<clipPath id="clip0_100:22">
<rect width="512" height="512" fill="white"/>
</clipPath>
</defs>
</svg>
